packages/icon/src/svg/next.icon.svg

<svg width="24" height="24" viewBox="0 0 24 24" fill="none" xmlns="http://www.w3.org/2000/svg">
<path fill-rule="evenodd" clip-rule="evenodd" d="M18.5 5H17.5C17.2239 5 17 5.22388 17 5.5V18.5C17 18.7761 17.2239 19 17.5 19H18.5C18.7761 19 19 18.7761 19 18.5V5.5C19 5.22388 18.7761 5 18.5 5ZM16.3372 11.5782L6.76843 5.48901C6.68823 5.43799 6.59509 5.41089 6.5 5.41089C6.22388 5.41089 6 5.63477 6 5.91089V18.0892C6 18.1843 6.0271 18.2775 6.07812 18.3577C6.22644 18.5906 6.53552 18.6593 6.76843 18.511L16.3372 12.4219C16.3988 12.3826 16.4512 12.3302 16.4905 12.2684C16.6388 12.0355 16.5701 11.7264 16.3372 11.5782Z" fill="white"/>
</svg>

<svg aria-label="next icon" viewBox="0 0 24 24"><path fill-rule="evenodd" clip-rule="evenodd" d="M18.5 5h-1a.5.5 0 00-.5.5v13a.5.5 0 00.5.5h1a.5.5 0 00.5-.5v-13a.5.5 0 00-.5-.5zm-2.163 6.578L6.768 5.49A.5.5 0 006 5.911v12.178a.5.5 0 00.768.422l9.57-6.09a.501.501 0 000-.843z"/></svg>
